X: 1
T: Captain Lockhart
C: unknown
R: Reel
Z: Bruce Shawyer
M: 4/4
L: 1/8
K: C
e | cGGF E2DC | Ddde fede | cGGF EcBA | GEFD CCC :|
f | ecge egfe | defg afda | ecgc egfe | fdge ccc ||
g | egcg ecgc | fdad fdad | egde cdAc | GEcE CCC |]
%%center Book18/CaptainLockhart_C-BS.abc

%%sep 1 1 500
%%sep 1 1 500

